X: 32
T:Far Frae Hame
M:C
L:1/8
R:Reel
K:G % 1 sharp
D-E|"G" GEDE G2 G-A|"G"B2 B-A Bc d2|"G"G-EDE G2 G-B|"A7"AGAB "D7"AGEF|!
"G"GEDE G2 G-A|"G"B2 B-A Bc d2|"C"e-def gedc|"G"BG"D7"AF "G"G2 B-d:||!
"Em"g2 ge "Bm"f2 fd|"Em"edef "G"ed B2|"C"gedB "Em"G2 G-B|"C"AGAB "D"AG E
2|!
"G"G-EDE G2 G-A|"G"B2 B-A Bc d2|"C"e-def "G"gedc|"G"BG"D7"AF "G" G2:||
% <A name="D1X033">
